img/btn-icon.svg

<svg width="16" height="20" fill="none" xmlns="http://www.w3.org/2000/svg"><path d="M10 0H2C.9 0 .01.9.01 2L0 18c0 1.1.891 2 1.99 2H14c1.1 0 2-.9 2-2V6l-6-6zm2 16H4v-2h8v2zm0-4H4v-2h8v2zM9 7V1.5L14.5 7H9z" fill="#fff"/></svg>

<svg width="16" height="20" viewBox="0 0 16 20" fill="none" xmlns="http://www.w3.org/2000/svg">
<path d="M10 0H2C0.9 0 0.0100098 0.9 0.0100098 2L0 18C0 19.1 0.89099 20 1.98999 20H14C15.1 20 16 19.1 16 18V6L10 0ZM12 16H4V14H12V16ZM12 12H4V10H12V12ZM9 7V1.5L14.5 7H9Z" fill="white"/>
</svg>
